X:1
T:Polly Oliver
M:3/4
L:1/8
K:Eb
 E2| e2 d2e-c| BG E2F-A|G-E C2 D2| E4 E2| e2 d2e-c|B-G E2F-A|G-E C2 D2|\
 E4 EG| B2 G2e-c|c-B B2c-d| e2 E2B-A| G2- F2(3B3.99999962500005/5.99999925000009B3.99999962500005/5.99999925000009c3.99999962500005/5.99999925000009B3.99999962500005/5.99999925000009c3.99999962500005/5.99999925000009d3.99999962500005/5.99999925000009|\
 e2 d2e-c|B-G E2F-A|G/2-B/2-G/2-E/2 C2 E2| E4||
